X:1
T:Title
%%score { 1 | ( 2 3 ) }
L:1/8
Q:1/4=84
M:4/4
K:F
V:1 treble nm="Grand Piano"
V:2 bass 
V:3 bass 
V:1
 [CFA]>[FA] [CFA]A [=B,_A][F=A][CFc][FA] | [CF][CF][B,E][B,D] [B,G][B,C] [B,C]2 | %2
w: W.~A.~Post * * * * * * *||
 [CFA]>[FA] [CFA][FA] [=B,F_A][F=A][D_A=B]c | Gcce d>[Ec] [Ec]2 | c>d cd cdcG | c>d cd cdcA | %6
w: ||||
 [DF][DF] [Fe]>[Fd] [Fd][Fc] .[C^FB]2 | [F,=B,D][B,A][B,A][B,G] [_B,F][B,E] [A,F]2 | %8
w: ||
 [FAf]2 [FAc]2 [FA][GB] [Ac]2 | [DFd]2 [FB]2 [DG]A [B,DGB]2 | %10
w: ||
 [DEB][EB][CEA][EA] [B,EG][B,EG] [CEc]2 | [CFA][FA][B,CG][CG] [A,CF][A,CF] [FAc]2 | %12
w: ||
 [FAf]2 [FAc]2 [FA][GB] [Ac]2 | [Dd]2 B2 GA [DGB]2 | %14
w: ||
 [EGc]>[EGc] [EGd][EGe] [FAf][FAc][DF][^CEG][Q:1/4=83][Q:1/4=82][Q:1/4=80][Q:1/4=79][Q:1/4=78][Q:1/4=77][Q:1/4=75][Q:1/4=74][Q:1/4=73][Q:1/4=72][Q:1/4=70][Q:1/4=69][Q:1/4=68][Q:1/4=67][Q:1/4=65][Q:1/4=64] | %15
w: |
 [CFA]2 [B,EG]2 [A,F]4 |] %16
w: |
V:2
 z z/ C/ z C z C z C | [A,,A,][A,,A,][G,,G,][F,,F,] [E,,E,][E,,E,] [E,,E,]2 | %2
 z z/ C/ z C z CE,[K:treble][A,EA] | [G,CE][G,CE][G,CE][G,CG] [G,=B,F]>[K:bass][C,G,] [C,G,]2 | %4
 [B,CE]>[B,CE] [B,CE][K:treble][B,CE] [B,CE][B,CE][B,CE][B,CE] | %5
 [A,CF]>[A,CF] [A,CF][A,CF] [A,CF][A,CF] [A,CF]2 | %6
 [=B,,_A,][B,,A,] [B,,A,]>[B,,A,] [C,=A,][C,A,] z A | %7
 G,,[G,,F,][G,,F,][G,,F,] [C,G,][C,G,] [F,,F,]2 | [F,,F,]2 [F,A,C]2 [F,,F,]2 [F,A,C]2 | %9
 [B,,,B,,]2 [F,B,D]2 z D G,2 | z D z C C,,G,,E,,C,, | z C z B, F,,F,C,A,, | %12
 [F,,F,]2 [F,A,C]2 [F,,F,]2 [F,A,C]2 | z4 .B,2 z2 | %14
 [C,C]>[C,C] [B,,B,][B,,B,] [A,,A,][A,,A,][B,,B,][B,,,B,,] | [C,,C,]2 [C,,C,]2 [F,,F,]4 |] %16
V:3
 F,,2 F,2 F,,2 F,2 | x8 | F,,2 F,2 F,,2 z2[K:treble] | x11/2[K:bass] x5/2 | x3[K:treble] x5 | x8 | %6
 z4 z2 D,2 | x8 | x8 | z4 [B,,,B,,]2 z2 | C,,2 C,2 z4 | F,,2 F,2 z4 | x8 | %13
 [B,,,B,,]2 [F,B,D]2 D-[A,,A,D] [G,,G,]2 | x8 | x8 |] %16

